X:125
T:Leather Away The Wattle-O
T:Leather Away with the Wattle
T:Half Door, The
R:polka
Z:id:hn-polka-125
M:2/4
L:1/8
K:D
dA FA | d>c df | ed cd | ef gf/g/ |
af ge | dc AF | GB A/B/A/G/ | FD D2 :|
|: f>f fd | g>g ge | f>f fa | gf ef/g/ |
af ge | dc AF | GB A/B/A/G/ | FD D2 :|
P:variations
|: dA FA | d>c dc/d/ | ed cd | ef ge |
a/g/f ge | dc AF | GB A/B/A/G/ | FD D2 :|
|: f2 fd | g2 ge | f2 fa | gf ef/g/ |
af ge | dc AF | GB A/B/A/G/ | FD D2 :|

